resources/luts/10_cool_white.cube
TITLE "Cool White"
LUT_3D_SIZE 2
DOMAIN_MIN 0.0 0.0 0.0
DOMAIN_MAX 1.0 1.0 1.0

# Slightly boost blue, reduce red (cooler look)
0.000000 0.000000 0.000000
0.000000 0.000000 1.000000
0.000000 1.000000 0.000000
0.000000 1.000000 1.000000
0.920000 0.000000 0.060000
0.920000 0.000000 1.000000
0.920000 1.000000 0.060000
0.920000 1.000000 1.000000

