resources/luts/20_advanced_gray.cube
TITLE "Advanced Gray"
LUT_3D_SIZE 2
DOMAIN_MIN 0.0 0.0 0.0
DOMAIN_MAX 1.0 1.0 1.0

# Reduce saturation by pushing channels toward luminance (very small LUT, subtle)
0.000000 0.000000 0.000000
0.070000 0.070000 0.070000
0.590000 0.590000 0.590000
0.660000 0.660000 0.660000
0.300000 0.300000 0.300000
0.370000 0.370000 0.370000
0.890000 0.890000 0.890000
0.960000 0.960000 0.960000

